src/assets/svg/icons/fa/nuevos/classic/thin/cube classic thin.svg

<svg xmlns="http://www.w3.org/2000/svg" viewBox="0 0 512 512"><path d="M242.6 4.258C251.3 1.187 260.7 1.187 269.4 4.258L485.4 80.9C501.3 86.57 512 101.7 512 118.6V393.4C512 410.3 501.3 425.4 485.4 431.1L269.4 507.7C260.7 510.8 251.3 510.8 242.6 507.7L26.62 431.1C10.66 425.4 0 410.3 0 393.4V118.6C0 101.7 10.66 86.57 26.62 80.9L242.6 4.258zM264 19.34C258.8 17.49 253.2 17.49 247.1 19.34L31.97 95.98C27.06 97.72 22.99 100.1 20.19 105.1L256 199.4L491.8 105.1C489 100.1 484.9 97.72 480 95.98L264 19.34zM31.97 416L248 492.7C248 492.7 247.1 492.7 248 492.7V213.4L16 120.6V393.4C16 403.6 22.4 412.6 31.97 416zM264 492.7C263.1 492.7 264 492.7 264 492.7L480 416C489.6 412.6 496 403.6 496 393.4V120.6L264 213.4V492.7z"/></svg>

<svg xmlns="http://www.w3.org/2000/svg" viewBox="0 0 512 512"><!--! Font Awesome Pro 6.4.0 by @fontawesome - https://fontawesome.com License - https://fontawesome.com/license (Commercial License) Copyright 2023 Fonticons, Inc. --><path d="M264 19.3c-5.2-1.8-10.9-1.8-16.1 0L32 96c-4.9 1.7-9 5-11.8 9.1L256 199.4l235.8-94.3C489 101 484.9 97.7 480 96L264 19.3zM16 393.4c0 10.2 6.4 19.2 16 22.6l216 76.6s0 0 0 0V213.4L16 120.6V393.4zm248 99.3s0 0 0 0L480 416c9.6-3.4 16-12.5 16-22.6V120.6L264 213.4V492.7zM242.6 4.3c8.7-3.1 18.1-3.1 26.8 0l216 76.6c16 5.7 26.6 20.8 26.6 37.7V393.4c0 16.9-10.7 32-26.6 37.7l-216 76.6c-8.7 3.1-18.1 3.1-26.8 0l-216-76.6C10.7 425.4 0 410.3 0 393.4V118.6c0-16.9 10.7-32 26.6-37.7l216-76.6z"/></svg>
